X: 108
T:Tulip,The. BF13.107
M:3/8
L:1/8
Q:30
S:J.Lishman()MS,c1825,Lakes,Browne Coll.
R:Waltz
O:England
A:Lakes
N:Tulips were much prized and rare ones were very valuable in those days.
Z:vmp.Chris Partington
K:A
e/d/|c2A|cec|dfd|cec|BdB|AcA|GBG|!
Eed|c2A|cec|dfd|cec|Bdf|feG|A2||!
e|e2d|cea|agf|e2d|cBA|fed|d3|c2d|!
e2d|cea|agf|e2d|cec|cBA|efe|"DC"dcB|]
